X: 1
T: Scollay's Reel
R: reel
Z: 2019 by John Chambers <jc:trillian.mit.edu>
B: Portland Coll p.178
N: This is a 32-bar version of King of the Fairies
M: C|
L: 1/8
K: Em
|: "Em"E2EF G2A2 | BcBA GEFA | B2E2 E2G2 | "D"FGAF D2GF |
|  "Em"E2EF G2A2 | BcBA GEFA | B2Bc "B7"BAFA | "Em"G2E2 E4 :|
|: "Em"efge B2B2 | g2g2 B4 | "Am"c2BA "Em"G2G2 | "D"FGAF D2F2 |
|  "Em"E2EF G2A2 | BABd e2d2 | B2Bc "B7"BAFA | "Em"G2E2 E4 :|
